resources/svg/icon-message.svg

<svg width="18" height="18" viewBox="0 0 18 18" fill="none" xmlns="http://www.w3.org/2000/svg">
<path d="M5.625 9.75H5.6325C6.045 9.75 6.3825 9.4125 6.3825 9C6.3825 8.58 6.045 8.25 5.6325 8.25H5.625C5.205 8.25 4.875 8.58 4.875 9C4.875 9.4125 5.205 9.75 5.625 9.75ZM9 9.75H9.0075C9.42 9.75 9.7575 9.4125 9.7575 9C9.7575 8.58 9.42 8.25 9.0075 8.25H9C8.58 8.25 8.25 8.58 8.25 9C8.25 9.4125 8.58 9.75 9 9.75ZM12.375 9.75H12.3825C12.795 9.75 13.1325 9.4125 13.1325 9C13.1325 8.58 12.795 8.25 12.3825 8.25H12.375C11.955 8.25 11.625 8.58 11.625 9C11.625 9.4125 11.955 9.75 12.375 9.75ZM9 16.5C13.14 16.5 16.5 13.14 16.5 9C16.5 4.8525 13.14 1.5 9 1.5C4.8525 1.5 1.5 4.8525 1.5 9C1.5 9.975 1.6875 10.9275 2.0475 11.82C2.1 11.9475 2.115 11.9925 2.115 11.985L2.1075 11.9775C2.1 11.97 2.1 11.9925 2.0775 12.1125L1.6275 14.775C1.53 15.315 1.5225 15.4275 1.65 15.7125C1.7625 15.975 1.9725 16.185 2.235 16.2975C2.52 16.4175 2.625 16.41 3.1725 16.32L5.835 15.87C5.9475 15.8475 5.9775 15.84 5.97 15.84C5.9625 15.8325 6 15.8475 6.135 15.9075C7.02 16.2675 7.9725 16.455 8.955 16.455L9 16.5ZM9 15C8.2125 15 7.4475 14.8425 6.7425 14.5575C6.495 14.4525 6.45 14.4375 6.3375 14.415C6.2175 14.385 6.12 14.3775 6.0075 14.3775C5.8875 14.3775 5.835 14.385 5.6175 14.415L2.9475 14.8575C2.775 14.88 2.7225 14.8875 2.685 14.895C2.7075 14.8875 2.76 14.895 2.8425 14.9325C2.925 14.97 3 15.0375 3.0375 15.1275C3.0675 15.2025 3.075 15.255 3.075 15.285C3.075 15.24 3.0825 15.1875 3.1125 15.0225L3.555 12.3525C3.585 12.1275 3.5925 12.075 3.5925 11.9625C3.585 11.8425 3.5775 11.745 3.555 11.6325C3.525 11.5125 3.51 11.4675 3.4125 11.2275C3.12 10.515 2.97 9.75 2.97 8.97C2.97 5.655 5.655 2.97 8.97 2.97C12.2775 2.97 14.97 5.655 14.97 8.97C14.97 12.2775 12.2775 14.97 8.97 14.97L9 15ZM5.25 9C5.25 8.79 5.415 8.625 5.625 8.625C5.8275 8.625 6 8.79 6 9C6 9.2025 5.8275 9.375 5.625 9.375C5.415 9.375 5.25 9.2025 5.25 9ZM6.75 9C6.75 8.3775 6.24 7.875 5.625 7.875C5.0025 7.875 4.5 8.3775 4.5 9C4.5 9.615 5.0025 10.125 5.625 10.125C6.24 10.125 6.75 9.615 6.75 9ZM8.625 9C8.625 8.79 8.79 8.625 9 8.625C9.2025 8.625 9.375 8.79 9.375 9C9.375 9.2025 9.2025 9.375 9 9.375C8.79 9.375 8.625 9.2025 8.625 9ZM10.125 9C10.125 8.3775 9.615 7.875 9 7.875C8.3775 7.875 7.875 8.3775 7.875 9C7.875 9.615 8.3775 10.125 9 10.125C9.615 10.125 10.125 9.615 10.125 9ZM12 9C12 8.79 12.165 8.625 12.375 8.625C12.5775 8.625 12.75 8.79 12.75 9C12.75 9.2025 12.5775 9.375 12.375 9.375C12.165 9.375 12 9.2025 12 9ZM13.5 9C13.5 8.3775 12.99 7.875 12.375 7.875C11.7525 7.875 11.25 8.3775 11.25 9C11.25 9.615 11.7525 10.125 12.375 10.125C12.99 10.125 13.5 9.615 13.5 9Z" fill="url(#paint0_linear_105_1173)"/>
<defs>
<linearGradient id="paint0_linear_105_1173" x1="1.5" y1="9.00001" x2="16.4938" y2="8.69494" gradientUnits="userSpaceOnUse">
<stop stop-color="white" stop-opacity="0.8"/>
<stop offset="1" stop-color="white" stop-opacity="0.4"/>
</linearGradient>
</defs>
</svg>

<svg xmlns="http://www.w3.org/2000/svg" width="18" height="18" fill="none">
  <path fill="url(#paint0_linear_105_1173)" d="M5.625 9.75h.008c.412 0 .75-.338.75-.75 0-.42-.338-.75-.75-.75h-.008c-.42 0-.75.33-.75.75 0 .412.33.75.75.75ZM9 9.75h.008c.412 0 .75-.338.75-.75 0-.42-.338-.75-.75-.75H9c-.42 0-.75.33-.75.75 0 .412.33.75.75.75Zm3.375 0h.008c.412 0 .75-.338.75-.75 0-.42-.338-.75-.75-.75h-.008c-.42 0-.75.33-.75.75 0 .412.33.75.75.75ZM9 16.5c4.14 0 7.5-3.36 7.5-7.5 0-4.147-3.36-7.5-7.5-7.5A7.493 7.493 0 0 0 1.5 9c0 .975.188 1.928.547 2.82.053.127.068.172.068.165l-.008-.008c-.007-.007-.007.015-.03.136l-.45 2.662c-.097.54-.105.652.023.938.113.262.323.472.585.585.285.12.39.112.938.022l2.662-.45a.883.883 0 0 0 .135-.03c-.007-.008.03.008.165.068.885.36 1.838.547 2.82.547L9 16.5ZM9 15a6.024 6.024 0 0 1-2.258-.443c-.247-.104-.292-.12-.404-.142a1.274 1.274 0 0 0-.33-.037c-.12 0-.173.007-.39.037l-2.67.443a4.71 4.71 0 0 0-.263.037c.022-.008.075 0 .157.037a.38.38 0 0 1 .196.195c.03.075.037.128.037.158 0-.045.007-.098.037-.262l.443-2.67c.03-.226.037-.278.037-.39a2.337 2.337 0 0 0-.037-.33 2.437 2.437 0 0 0-.143-.405A5.998 5.998 0 0 1 8.97 2.97c3.307-.001 6 2.684 6 5.999 0 3.307-2.693 6-6 6L9 15ZM5.25 9c0-.21.165-.375.375-.375.202 0 .375.165.375.375a.381.381 0 0 1-.375.375A.376.376 0 0 1 5.25 9Zm1.5 0c0-.623-.51-1.125-1.125-1.125C5.003 7.875 4.5 8.377 4.5 9c0 .615.503 1.125 1.125 1.125.615 0 1.125-.51 1.125-1.125Zm1.875 0c0-.21.165-.375.375-.375.203 0 .375.165.375.375A.381.381 0 0 1 9 9.375.376.376 0 0 1 8.625 9Zm1.5 0c0-.623-.51-1.125-1.125-1.125-.623 0-1.125.502-1.125 1.125 0 .615.502 1.125 1.125 1.125.615 0 1.125-.51 1.125-1.125ZM12 9c0-.21.165-.375.375-.375.203 0 .375.165.375.375a.381.381 0 0 1-.375.375A.376.376 0 0 1 12 9Zm1.5 0c0-.623-.51-1.125-1.125-1.125-.623 0-1.125.502-1.125 1.125 0 .615.502 1.125 1.125 1.125.615 0 1.125-.51 1.125-1.125Z"/>
  <defs>
    <linearGradient id="paint0_linear_105_1173" x1="1.5" x2="16.494" y1="9" y2="8.695" gradientUnits="userSpaceOnUse">
      <stop stop-color="#fff" stop-opacity=".8"/>
      <stop offset="1" stop-color="#fff" stop-opacity=".4"/>
    </linearGradient>
  </defs>
</svg>
